svg/k8s-service.svg

<?xml version="1.0" encoding="UTF-8"?>
<svg xmlns="http://www.w3.org/2000/svg" xmlns:xlink="http://www.w3.org/1999/xlink" width="32.978001" height="32" viewBox="0 0 32.978001 32">
<path fill-rule="nonzero" fill="rgb(19.607843%, 42.352941%, 89.803922%)" fill-opacity="1" d="M 16.378906 0.847656 C 16.105469 0.863281 15.835938 0.933594 15.585938 1.046875 L 4.722656 6.238281 C 4.15625 6.507812 3.742188 7.023438 3.601562 7.636719 L 0.921875 19.292969 C 0.78125 19.902344 0.925781 20.546875 1.320312 21.035156 L 8.839844 30.382812 C 9.234375 30.871094 9.832031 31.15625 10.460938 31.15625 L 22.515625 31.152344 C 23.148438 31.152344 23.746094 30.871094 24.140625 30.378906 L 31.65625 21.03125 C 32.050781 20.542969 32.199219 19.902344 32.058594 19.289062 L 29.375 7.632812 C 29.234375 7.019531 28.820312 6.503906 28.25 6.234375 L 17.386719 1.046875 C 17.074219 0.898438 16.726562 0.828125 16.378906 0.847656 M 16.378906 0.847656 "/>
<path fill-rule="nonzero" fill="rgb(100%, 100%, 100%)" fill-opacity="1" d="M 16.375 0.00390625 C 16.082031 0.0195312 15.796875 0.0898438 15.535156 0.214844 L 4.070312 5.695312 C 3.46875 5.980469 3.03125 6.523438 2.882812 7.167969 L 0.0546875 19.472656 C -0.078125 20.046875 0.03125 20.648438 0.351562 21.140625 C 0.390625 21.203125 0.433594 21.257812 0.476562 21.3125 L 8.414062 31.183594 C 8.832031 31.699219 9.464844 32 10.128906 32 L 22.851562 31.996094 C 23.519531 31.996094 24.152344 31.695312 24.566406 31.179688 L 32.5 21.3125 C 32.914062 20.796875 33.070312 20.117188 32.921875 19.472656 L 30.089844 7.164062 C 29.9375 6.519531 29.503906 5.976562 28.90625 5.691406 L 17.4375 0.214844 C 17.105469 0.0585938 16.742188 -0.015625 16.375 0.00390625 M 16.378906 0.847656 C 16.726562 0.828125 17.074219 0.898438 17.386719 1.046875 L 28.25 6.234375 C 28.816406 6.507812 29.230469 7.019531 29.375 7.632812 L 32.058594 19.289062 C 32.199219 19.902344 32.050781 20.542969 31.65625 21.03125 L 24.140625 30.378906 C 23.746094 30.871094 23.148438 31.15625 22.515625 31.152344 L 10.460938 31.15625 C 9.828125 31.15625 9.230469 30.871094 8.839844 30.382812 L 1.320312 21.035156 C 0.925781 20.546875 0.78125 19.902344 0.921875 19.292969 L 3.601562 7.636719 C 3.742188 7.023438 4.15625 6.507812 4.722656 6.238281 L 15.585938 1.046875 C 15.832031 0.929688 16.105469 0.859375 16.378906 0.847656 M 16.378906 0.847656 "/>
<path fill-rule="evenodd" fill="rgb(100%, 100%, 100%)" fill-opacity="1" d="M 6.574219 19.667969 L 11.890625 19.667969 L 11.890625 23.398438 L 6.574219 23.398438 Z M 13.832031 19.667969 L 19.148438 19.667969 L 19.148438 23.398438 L 13.832031 23.398438 Z M 21.085938 19.667969 L 26.40625 19.667969 L 26.40625 23.398438 L 21.085938 23.398438 Z M 12.277344 8.601562 L 20.703125 8.601562 L 20.703125 12.332031 L 12.277344 12.332031 Z M 12.277344 8.601562 "/>
<path fill="none" stroke-width="0.968" stroke-linecap="butt" stroke-linejoin="round" stroke="rgb(100%, 100%, 100%)" stroke-opacity="1" stroke-miterlimit="10" d="M 16.488281 12.332031 L 16.488281 16 L 9.234375 16 L 9.234375 19.664062 "/>
<path fill="none" stroke-width="0.967" stroke-linecap="butt" stroke-linejoin="round" stroke="rgb(100%, 100%, 100%)" stroke-opacity="1" stroke-miterlimit="10" d="M 16.488281 12.332031 L 16.488281 16 L 23.742188 16 L 23.742188 19.664062 "/>
<path fill="none" stroke-width="0.968" stroke-linecap="butt" stroke-linejoin="round" stroke="rgb(100%, 100%, 100%)" stroke-opacity="1" stroke-miterlimit="10" d="M 16.472656 12.335938 L 16.472656 16.003906 L 16.503906 16.003906 L 16.503906 19.664062 "/>
</svg>

<svg role="img" viewBox="0 0 32.978 32" height="32" width="32.978" xmlns="http://www.w3.org/2000/svg"><path d="M16.379.848a2.238 2.238 0 0 0-.793.199L4.723 6.238a2.06 2.06 0 0 0-1.121 1.399L.922 19.293c-.14.61.004 1.254.398 1.742l7.52 9.348c.394.488.992.773 1.62.773l12.056-.004c.632 0 1.23-.28 1.625-.773l7.515-9.348a2.042 2.042 0 0 0 .403-1.742L29.375 7.633a2.055 2.055 0 0 0-1.125-1.399L17.387 1.047a2.082 2.082 0 0 0-1.008-.2m0 0" fill="rgb(19.607843%, 42.352941%, 89.803922%)"/><path d="M16.375.004a2.22 2.22 0 0 0-.84.21L4.07 5.696a2.171 2.171 0 0 0-1.187 1.473L.055 19.473a2.164 2.164 0 0 0 .297 1.668c.039.062.082.117.125.172l7.937 9.87a2.21 2.21 0 0 0 1.715.817l12.723-.004c.668 0 1.3-.3 1.714-.816l7.934-9.867c.414-.516.57-1.196.422-1.84L30.09 7.164a2.187 2.187 0 0 0-1.184-1.473L17.438.215a2.216 2.216 0 0 0-1.063-.211m.004.844c.348-.02.695.05 1.008.199L28.25 6.234c.566.274.98.786 1.125 1.399l2.684 11.656a2.042 2.042 0 0 1-.403 1.742l-7.515 9.348a2.065 2.065 0 0 1-1.625.773l-12.055.004c-.633 0-1.23-.285-1.621-.773l-7.52-9.348a2.043 2.043 0 0 1-.398-1.742l2.68-11.656a2.06 2.06 0 0 1 1.12-1.399l10.864-5.191c.246-.117.52-.188.793-.2m0 0" fill="rgb(100%, 100%, 100%)"/><path d="M6.574 19.668h5.317v3.73H6.574Zm7.258 0h5.316v3.73h-5.316Zm7.254 0h5.32v3.73h-5.32ZM12.277 8.602h8.426v3.73h-8.426Zm0 0" fill="rgb(100%, 100%, 100%)" fill-rule="evenodd"/><path d="M16.488 12.332V16H9.234v3.664" fill="none" stroke="rgb(100%, 100%, 100%)" stroke-linejoin="round" stroke-miterlimit="10" stroke-width=".968"/><path d="M16.488 12.332V16h7.254v3.664" fill="none" stroke="rgb(100%, 100%, 100%)" stroke-linejoin="round" stroke-miterlimit="10" stroke-width=".967"/><path d="M16.473 12.336v3.668h.03v3.66" fill="none" stroke="rgb(100%, 100%, 100%)" stroke-linejoin="round" stroke-miterlimit="10" stroke-width=".968"/></svg>
